X:532291 F:http://www.vwml.org/record/HAM/5/32/29%%VWML:HAM-5-32-29-0 T:Since You Say So, My Dearest Nancy
S:Mrs Marina Russell, Upwey coll. HED Hammond
O:England
A:Dorset
N:Transcribed from HAM-05-076
F:HAM-05-32-29.abc
Z:EFDSS;PJHeadford M:5/4
L:1/8
Q:1/4=100
K:Eb
G2|c2B2c4d2|!segno!e2e2d2B2B B|c2c2(G2F2)E2|F2F2G4G2| c2B2c4d2&c3cc4x2|!segno!e2c2d2B2B B|c2c2G2F2E2|F2F2G2G>F| E3G(B2=A2)G2|G2c2c4cd|e2c2f4gf|e2dc(G2F2)z2|
M:3/4
E2F2=A2|B4E2|D2C2||!segno!">Bar 3 & 7 seemed to be ..."xxxx||
W:[the text after the tune is:]Bars 3 & 7 seemed to be in 3/2 time; the rest in 5/4 except the last two bars.
W:Excepting these last bars, the whole tune would go in 5/4 or 3/2 time. (H.E.D.H.)
